X: 40491
T: Tomeen O'Dea's
R: reel
M: 4/4
K: Dmajor
dBAB e2 dB|dBAB g2 fe|dBAB e2 de|(3fga ef d4:|
FABd ABFE|FA (3Bcd A4|FABd ABFE|DB,A,B, D4:|

